X:650
T:The fisherman's widow
T:The rambling pitchfork
O:Ireland
R:Jig
B:The Irish Fiddle Book
B:O'Neill's 931
S:O'Neill's 931
Z:Transcription:Tom Keays, Minor arr., chords:Mike Long
M:6/8
L:1/8
K:D
"D"F2G AFA|dcA AGF|"C"G3 AB=c|"G"ded =cAG|\
"D"F2G AFA|dcA AGF|"C"GFG "G"ABG|"D"AFD D3:|
"D"d2e f2d|"D"dcA "A"ABc|"D"d2e f2a|"D"afd "A"dcA|\
"D"d2e f2d|"D"dcA "A"AGF|"C"GFG "G"ABG|"D"AFD D3||
"D"d2e f2d|"D"dcA "A"ABc|"D"d2e f2a|"D"afd "A"dcA|\
"D"afa "G"geg|"D"FED "C"=cAF|"G"G2A BAG|"D"AFD D3|]
